!!!COM: Palestrina, Giovanni Perluigi da
!!!OPR: Papae Marcelli
!!!OTL: Gloria
**kern	**kern	**kern	**kern	**kern	**kern
*Ibass	*Ibass	*Itenor	*Itenor	*Icalto	*Icant
!Bassus 2	!Bassus 1	!Tenor 2	!Tenor 1	!Altus	!Cantus
*clefF4	*clefF4	*clefGv2	*clefGv2	*clefG2	*clefG2
*k[]	*k[]	*k[]	*k[]	*k[]	*k[]
*C:ion	*C:ion	*C:ion	*C:ion	*C:ion	*C:ion
*M4/2	*M4/2	*M4/2	*M4/2	*M4/2	*M4/2
=1	=1	=1	=1	=1	=1
0G	0r	0d	0r	0g	0dd
=2	=2	=2	=2	=2	=2
1G	0r	1d	0r	1g	1b
1c	.	1e	.	1g	1cc
=3	=3	=3	=3	=3	=3
1A	0r	1e	0r	1a	1cc
2.d	.	1f#	.	2a	[1dd
.	.	.	.	[2d	.
4c	.	.	.	.	.
=4	=4	=4	=4	=4	=4
2B	0r	1g	0r	2d]	2dd]
2c	.	.	.	1g	2ee
2A	.	2c	.	.	2cc
2A	.	2c	.	2f#	2cc
=5	=5	=5	=5	=5	=5
0G	1r	0d	1r	1g	1b
.	[1G	.	[1g	[1b	[1dd
=6	=6	=6	=6	=6	=6
0r	2G]	0r	2g]	2b]	2dd]
.	2G	.	2g	2b	2dd
.	1c	.	1g	1cc	1ee
=7	=7	=7	=7	=7	=7
0r	1A	0r	1a	1cc	1ee
.	1d	.	1f	2a	1ff
.	.	.	.	2b	.
=8	=8	=8	=8	=8	=8
1r	1c	1r	1g	1cc	1ee
1G	1r	1g	1r	1b	1dd
=9	=9	=9	=9	=9	=9
1c	0r	4e	0r	1cc	1ee
.	.	4f	.	.	.
.	.	4g	.	.	.
.	.	4e	.	.	.
1d	.	4f#	.	1a	1dd
.	.	2g	.	.	.
.	.	4f#	.	.	.
=10	=10	=10	=10	=10	=10
1G	2r	1g	2r	2g	2b
.	1G	.	1g	1b	1dd
1r	.	1r	.	.	.
.	2G	.	2g	2b	2dd
=11	=11	=11	=11	=11	=11
0r	2c	0r	2g	2cc	2ee
.	2c	.	2e	2cc	2ee
.	1d	.	4f#	1a	1dd
.	.	.	2g	.	.
.	.	.	4f#	.	.
=12	=12	=12	=12	=12	=12
2r	1G	2r	2g	1g	0b
1G	.	1g	1d	.	.
.	1r	.	.	1r	.
2G	.	2g	2d	.	.
=13	=13	=13	=13	=13	=13
1A	0r	2f	1c	0r	0r
.	.	1e	.	.	.
1F	.	.	1A	.	.
.	.	2d	.	.	.
=14	=14	=14	=14	=14	=14
0C	2r	2e	1c	2r	2r
.	2c	2e	.	2g	2cc
.	2c	2e	1r	2g	2cc
.	2c	2e	.	2g	2cc
=15	=15	=15	=15	=15	=15
0r	1d	2d	0r	1f	2b-
.	.	1f	.	.	1a
.	1B-	.	.	1d	.
.	.	4e	.	.	2g
.	.	4d	.	.	.
=16	=16	=16	=16	=16	=16
1r	1A	1c#	1r	1e	1a
[1D	1r	[1d	[1f	[1a	[1ff
=17	=17	=17	=17	=17	=17
2D]	0r	2d]	2f]	2a]	2ff]
2D	.	2d	2f	2a	2ff
1D	.	1d	1f	1a	1dd
=18	=18	=18	=18	=18	=18
1.A	0r	1c	1.e	1.a	1.ee
.	.	1A	.	.	.
2A	.	.	2c	2a	2ee
=19	=19	=19	=19	=19	=19
1A	0r	1e	1c	1a	1ee
2.D	.	1d	1d	2.f	[1ff
4E	.	.	.	4g	.
=20	=20	=20	=20	=20	=20
1F	1r	1c	2.A	1a	1ff]
.	.	.	4B	.	.
1C	2r	2r	1c	1g	2ee
.	[2c	[2g	.	.	[2ee
=21	=21	=21	=21	=21	=21
0r	2c]	2g]	1G	0r	2ee]
.	2B	2g	.	.	2dd
.	1c	1g	1r	.	1ee
=22	=22	=22	=22	=22	=22
0r	2A	2a	0r	0r	2cc
.	2.d	1a	.	.	2.ff
.	4c	.	.	.	4ee
.	2A	2a	.	.	2cc
=23	=23	=23	=23	=23	=23
0r	2B	2.g	0r	2r	2dd
.	1c	.	.	2.g	2.ee
.	.	4f	.	.	.
.	.	2e	.	.	.
.	.	.	.	8f	4dd
.	.	.	.	8g	.
.	2F	2f	.	2a	[2cc
=24	=24	=24	=24	=24	=24
1r	1G	1d	1r	1g	2cc]
.	.	.	.	.	2b
2r	2C	1c	2r	2e	1cc
2c	2C	.	2e	2g	.
=25	=25	=25	=25	=25	=25
2c	2C	0r	2e	2g	0r
2B	2G	.	2d	2g	.
1c	1C	.	1e	1g	.
=26	=26	=26	=26	=26	=26
2A	2F	0r	2c	2a	0r
2.d	2D	.	2.f	1a	.
.	1A	.	.	.	.
4c	.	.	4e	.	.
4c	.	.	4e	[2a	.
8B	.	.	8d	.	.
8A	.	.	8c	.	.
=27	=27	=27	=27	=27	=27
2B	0r	0r	2d	2a]	0r
2c	.	.	2e	1g	.
1A	.	.	1c	.	.
.	.	.	.	2f#	.
=28	=28	=28	=28	=28	=28
1G	2r	2r	1d	1g	2r
.	1G	1d	.	.	1b
1r	.	.	1r	1r	.
.	2F#	2d	.	.	2a
=29	=29	=29	=29	=29	=29
0r	1G	1d	0r	0r	1b
.	2E	1e	.	.	2g
.	[2A	.	.	.	[2cc
=30	=30	=30	=30	=30	=30
0r	4A]	1e	0r	0r	4cc]
.	4G	.	.	.	4b
.	2E	.	.	.	2g
.	2F#	2d	.	.	2a
.	2G	2d	.	.	2b
=31	=31	=31	=31	=31	=31
2r	[0C	1c	2r	2r	2cc
1c	.	.	1e	1g	1cc
.	.	1r	.	.	.
2c	.	.	2e	2g	2cc
=32	=32	=32	=32	=32	=32
1c	1C]	0r	1e	1g	1cc
2A	1r	.	[1f	[1a	1cc
[2F	.	.	.	.	.
=33	=33	=33	=33	=33	=33
4F]	1r	1r	1f]	1a]	4a
4G	.	.	.	.	4b
4A	.	.	.	.	4cc
4B	.	.	.	.	4dd
2c	2r	2r	2e	2g	2ee
[2C	[2c	[2e	[2g	[2cc	[2ee
=34	=34	=34	=34	=34	=34
2C]	2c]	2e]	2g]	2cc]	2ee]
2C	2c	2e	2g	2cc	2ee
1C	1c	1e	1g	1cc	1ee
=35	=35	=35	=35	=35	=35
0F	2A	0c	0a	0cc	0ff
.	2.F	.	.	.	.
.	4G	.	.	.	.
.	4A	.	.	.	.
.	4B	.	.	.	.
=36	=36	=36	=36	=36	=36
2C	1c	2c	1g	2cc	2ee
1c	.	1g	.	4c	1ee
.	.	.	.	4d	.
.	1r	.	2c	4e	.
.	.	.	.	4f	.
2B	.	2g	2G	[2g	2dd
=37	=37	=37	=37	=37	=37
2A	1r	2a	2c	2g]	2cc
2A	.	2a	2A	2f#	2cc
1G	2r	1d	4B	2g	2b
.	.	.	4A	.	.
.	[2G	.	4G	[2d	[2dd
.	.	.	4A	.	.
=38	=38	=38	=38	=38	=38
0r	2G]	0r	4B	2d]	2dd]
.	.	.	4c	.	.
.	2F	.	1d	2d	2dd
.	2E	.	.	2g	2ee
.	2E	.	2c#	2g	2ee
=39	=39	=39	=39	=39	=39
1r	0D	2r	1d	1f	1a
.	.	2.a	.	.	.
[1D	.	.	[1d	[1a	[1ff
.	.	4g	.	.	.
.	.	[2f	.	.	.
=40	=40	=40	=40	=40	=40
1D]	0r	4f]	1d]	1a]	1ff]
.	.	4e	.	.	.
.	.	1d	.	.	.
1A	.	.	1e	1a	[1ee
.	.	2c#	.	.	.
=41	=41	=41	=41	=41	=41
0D	0r	0d	0f	0a	2ee]
.	.	.	.	.	4dd
.	.	.	.	.	4cc#
.	.	.	.	.	1dd
=42	=42	=42	=42	=42	=42
1A	1r	1c#	1e	1a	1ee
[1d	[1D	4d	2.d	[1a	[1ff
.	.	4e	.	.	.
.	.	4f	.	.	.
.	.	4g	4e	.	.
=43	=43	=43	=43	=43	=43
1d]	1D]	2a	4f	1a]	1ff]
.	.	.	4g	.	.
.	.	2d	2.a	.	.
1c#	1A	2e	.	1a	1ee
.	.	.	4g	.	.
.	.	2A	2e	.	.
=44	=44	=44	=44	=44	=44
0d	1D	2.a	2.f	1a	0dd
.	.	4g	4e	.	.
.	1D	1f	1d	1a	.
=45	=45	=45	=45	=45	=45
1A	2r	1e	2c#	2r	0ee
.	2A	.	2e	2a	.
1r	2A	1r	2e	2a	.
.	2A	.	2e	2a	.
=46	=46	=46	=46	=46	=46
0r	1c	1r	1e	1g	0r
.	2B	2r	2d	2g	.
.	[2A	[2e	[2c	2cc	.
=47	=47	=47	=47	=47	=47
0r	2A]	2e]	2c]	2a	0r
.	2G	2e	2B	2.b	.
.	1F	2f	2c	.	.
.	.	.	.	4a	.
.	.	2d	4B	[2a	.
.	.	.	4A	.	.
=48	=48	=48	=48	=48	=48
1r	1E	1e	1B	2a]	1r
.	.	.	.	2g#	.
2r	1A	2r	2.A	1a	2r
2A	.	2a	.	.	2ee
.	.	.	4B	.	.
=49	=49	=49	=49	=49	=49
2A	0r	2a	1c	0r	2ee
2A	.	2a	.	.	2ee
1c	.	1g	1r	.	1ee
=50	=50	=50	=50	=50	=50
2B	0r	2g	2r	0r	2dd
1A	.	2.c	1e	.	1cc
.	.	4d	.	.	.
2G	.	[2e	2e	.	2b
=51	=51	=51	=51	=51	=51
1F	1r	2e]	1A	1r	1a
.	.	2d	.	.	.
[1C	2r	1e	1c	2r	2g
.	[2c	.	.	2e	[2g
=52	=52	=52	=52	=52	=52
0C]	2c]	0r	1r	2e	2g]
.	2c	.	.	2e	2g
.	1c	.	2r	1e	1g
.	.	.	[2c	.	.
=53	=53	=53	=53	=53	=53
0r	0A	0r	2c]	1e	2.a
.	.	.	2c	.	.
.	.	.	.	.	4g
.	.	.	1c	1f#	4a
.	.	.	.	.	4b
.	.	.	.	.	[2cc
=54	=54	=54	=54	=54	=54
0r	0G	0r	0d	0g	2cc]
.	.	.	.	.	4b
.	.	.	.	.	4a
.	.	.	.	.	1b
=55	=55	=55	=55	=55	=55
2r	[0C	2r	1e	2r	[0cc
1c	.	1e	.	1g	.
.	.	.	2r	.	.
2c	.	2e	[2c	2g	.
=56	=56	=56	=56	=56	=56
1c	1C]	1e	2c]	1g	0cc]
.	.	.	2c	.	.
1A	1r	1f#	1c	1a	.
=57	=57	=57	=57	=57	=57
0G	2r	2g	1d	1b	2r
.	1G	1d	.	.	1dd
.	.	.	2.B	2r	.
.	2G	2d	.	[2g	2dd
.	.	.	4c	.	.
=58	=58	=58	=58	=58	=58
2r	1G	0B	1d	2g]	1dd
1G	.	.	.	2g	.
.	2.E	.	2G	1g	[1ee
2G	.	.	[2g	.	.
.	4D	.	.	.	.
=59	=59	=59	=59	=59	=59
1G	0C	2.c	2g]	0g	2ee]
.	.	.	2f	.	2dd
.	.	4B	.	.	.
1G	.	2G	1e	.	1cc
.	.	2A	.	.	.
=60	=60	=60	=60	=60	=60
0G	0G	0B	0d	0g	0b
=61	=61	=61	=61	=61	=61
0r	0G	0r	0d	0g	0b
=62	=62	=62	=62	=62	=62
0r	1G	0r	1d	1g	1b
.	2D	.	2d	2f	2a
.	2d	.	2f	2d	2a
=63	=63	=63	=63	=63	=63
0r	2d	0r	2f	2a	2dd
.	2c#	.	2e	2a	2ee
.	2d	.	4d	2.f	[1ff
.	.	.	4e	.	.
.	[2D	.	4f	.	.
.	.	.	4g	4e	.
=64	=64	=64	=64	=64	=64
1r	4D]	1r	1a	1d	1ff]
.	4E	.	.	.	.
.	4F	.	.	.	.
.	4G	.	.	.	.
2r	1A	2r	1a	2c	1ee
[2A	.	[2c	.	[2e	.
=65	=65	=65	=65	=65	=65
2A]	0r	2c]	1r	2e]	0r
2G	.	2B-	.	2e	.
2F	.	2A	2r	2d	.
2G	.	2B-	[2d	2d	.
=66	=66	=66	=66	=66	=66
1E	1r	1G	4d]	1g	1r
.	.	.	8c	.	.
.	.	.	8B	.	.
.	.	.	2c#	.	.
1D	2r	1A	2d	2.f	2r
.	[2d	.	[2f	.	[2a
.	.	.	.	4e	.
=67	=67	=67	=67	=67	=67
0r	2d]	0r	2f]	2d	2a]
.	2c	.	2e	2A	2a
.	2B	.	2d	2r	2g
.	2c	.	2e	2c	2g
=68	=68	=68	=68	=68	=68
0r	1A	0r	1c	2e	1cc
.	.	.	.	2f#	.
.	1G	.	1d	1g	1b
=69	=69	=69	=69	=69	=69
0G	0r	0B	1r	0g	0dd
.	.	.	1d	.	.
=70	=70	=70	=70	=70	=70
1G	0r	1B	1d	1g	1dd
1C	.	1c	2c	1g	1ee
.	.	.	[2e	.	.
=71	=71	=71	=71	=71	=71
2C	0r	2c	2e]	2g	2cc
1G	.	1B	1d	1g	1dd
2C	.	2c	2c	2g	2ee
=72	=72	=72	=72	=72	=72
1F	0r	1A	2.c	1a	1ff
.	.	.	4d	.	.
1C	.	1c	1e	1g	1ee
=73	=73	=73	=73	=73	=73
1.c	1.C	1.e	2r	1.cc	1.ee
.	.	.	1g	.	.
2c	2C	2e	2g	2cc	2ee
=74	=74	=74	=74	=74	=74
1c	1C	2e	2g	0cc	2ee
.	.	4c	1e	.	2.gg
.	.	4d	.	.	.
[1C	[1c	4e	.	.	.
.	.	4f	.	.	4ff
.	.	[2g	2e	.	4ee
.	.	.	.	.	4dd
=75	=75	=75	=75	=75	=75
1C]	2c]	4g]	2.e	1.g	4ee
.	.	4f	.	.	4dd
.	2c	4e	.	.	4cc
.	.	4d	4f	.	4b
1C	1c	2e	1g	.	2cc
.	.	2e	.	2g	2cc
=76	=76	=76	=76	=76	=76
1G	2r	1d	2r	2g	2b
.	1G	.	1g	1b	1dd
1r	.	1r	.	.	.
.	2G	.	2g	2b	2dd
=77	=77	=77	=77	=77	=77
0r	2.c	0r	2g	2cc	2ee
.	.	.	2e	2g	2ee
.	4B	.	.	.	.
.	2A	.	4e	2a	2cc
.	.	.	4c	.	.
.	2G	.	[2g	2b	2dd
=78	=78	=78	=78	=78	=78
0r	1c	0r	2g]	1cc	1ee
.	.	.	4f	.	.
.	.	.	4e	.	.
.	1d	.	4f#	1a	1dd
.	.	.	2g	.	.
.	.	.	4f#	.	.
=79	=79	=79	=79	=79	=79
2r	1G	2r	1g	2g	2b
1G	.	1g	.	1b	1dd
.	1r	.	1r	.	.
2G	.	2g	.	2b	2dd
=80	=80	=80	=80	=80	=80
2.c	0r	2g	0r	2cc	2ee
.	.	2e	.	2g	2ee
4B	.	.	.	.	.
2A	.	4e	.	2a	2cc
.	.	4c	.	.	.
2G	.	[2g	.	2b	2dd
=81	=81	=81	=81	=81	=81
1c	0r	2g]	0r	1cc	1ee
.	.	4f	.	.	.
.	.	4e	.	.	.
1d	.	4f#	.	1a	1dd
.	.	2g	.	.	.
.	.	4f#	.	.	.
=82	=82	=82	=82	=82	=82
0G	1r	1g	1r	1g	1b
.	2r	1r	1g	1r	2r
.	2B	.	.	.	2dd
=83	=83	=83	=83	=83	=83
0r	1c	0r	1g	0r	1ee
.	2B	.	[1g	.	2dd
.	[2c	.	.	.	[2ee
=84	=84	=84	=84	=84	=84
0r	4c]	0r	2g]	0r	4ee]
.	4B	.	.	.	4dd
.	2G	.	2g	.	2b
.	2A	.	2f	.	2cc
.	2B	.	2d	.	2dd
=85	=85	=85	=85	=85	=85
0r	1c	0r	1e	0r	1g
.	1F	.	1f	.	1a
=86	=86	=86	=86	=86	=86
2r	1C	2r	1e	2r	1g
2c	.	2e	.	2g	.
2B	1r	2d	1r	2g	1r
[2c	.	[2e	.	[2g	.
=87	=87	=87	=87	=87	=87
4c]	0r	4e]	0r	2g]	0r
4B	.	4d	.	.	.
2G	.	2B	.	2g	.
2A	.	2c	.	1f	.
2B	.	[2d	.	.	.
=88	=88	=88	=88	=88	=88
1c	0r	4d]	0r	1e	0r
.	.	4c	.	.	.
.	.	1c	.	.	.
1G	.	.	.	1d	.
.	.	2B	.	.	.
=89	=89	=89	=89	=89	=89
1C	2r	1c	2r	1e	2r
.	2c	.	2g	.	2ee
1r	2B	1r	2g	1r	2dd
.	[2c	.	[2g	.	[2ee
=90	=90	=90	=90	=90	=90
0r	4c]	0r	2g]	0r	4ee]
.	4B	.	.	.	4dd
.	2G	.	2g	.	2b
.	2A	.	1f	.	2cc
.	2B	.	.	.	[2dd
=91	=91	=91	=91	=91	=91
0r	1c	0r	1e	0g	4dd]
.	.	.	.	.	4cc
.	.	.	.	.	1cc
.	1G	.	1d	.	.
.	.	.	.	.	2b
=92	=92	=92	=92	=92	=92
1r	0C	2r	0c	1e	1cc
.	.	2.g	.	.	.
2r	.	.	.	2r	2r
.	.	4f	.	.	.
[2c	.	4e	.	[2g	[2ee
.	.	4d	.	.	.
=93	=93	=93	=93	=93	=93
2c]	0r	2c	0r	2g]	2ee]
2B	.	2d	.	2g	2dd
2c	.	2e	.	2g	2cc
2G	.	2d	.	2g	2b
=94	=94	=94	=94	=94	=94
2A	0r	2c	0r	4f	2a
.	.	.	.	4e	.
2E	.	2B	.	1e	2g#
1F	.	1A	.	.	1a
.	.	.	.	2d	.
=95	=95	=95	=95	=95	=95
1E	2r	2B	2r	1e	1g#
.	1E	1B	1e	.	.
1r	.	.	.	1r	2r
.	[2A	[2c	[2e	.	2cc
=96	=96	=96	=96	=96	=96
0r	2A]	2c]	2e]	0r	2a
.	2G#	2B	2e	.	2b
.	2.A	2.c	4f	.	8a
.	.	.	.	.	8g#
.	.	.	4e	.	8a
.	.	.	.	.	8b
.	.	.	[2e	.	[2cc
.	4G	4B	.	.	.
=97	=97	=97	=97	=97	=97
0r	2F	2A	4e]	0r	4cc]
.	.	.	4d	.	4b
.	2F	2A	2d	.	1a
.	1E	1B	[1e	.	.
.	.	.	.	.	2g#
=98	=98	=98	=98	=98	=98
2r	1A	2r	1e]	2r	1a
1A	.	1e	.	1a	.
.	1r	.	1r	.	1r
[2d	.	[2f	.	[2a	.
=99	=99	=99	=99	=99	=99
2d]	0r	2f]	1r	2a]	0r
2c#	.	2e	.	2a	.
2.d	.	2.f	2r	1a	.
.	.	.	[2d	.	.
4c	.	4e	.	.	.
=100	=100	=100	=100	=100	=100
2B	0r	2d	2d]	1g	0r
2c	.	1e	1g	.	.
2A	.	.	.	1c	.
2A	.	4d	2f#	.	.
.	.	4c	.	.	.
=101	=101	=101	=101	=101	=101
1G	1r	1B	1g	1d	1r
2r	[1G	[1B	2.d	[1g	[1dd
[2G	.	.	.	.	.
.	.	.	4c	.	.
=102	=102	=102	=102	=102	=102
2G]	1G]	2B]	2B	1g]	1dd]
2A	.	2c	2A	.	.
1B	1G	1d	1G	1g	1dd
=103	=103	=103	=103	=103	=103
0c	0C	2.c	0g	2.e	0ee
.	.	4d	.	4f	.
.	.	2e	.	2g	.
.	.	2c	.	2a	.
=104	=104	=104	=104	=104	=104
1B	1G	1d	1g	1b	1dd
[1G	2r	[1g	[1d	1r	[1b
.	[2G	.	.	.	.
=105	=105	=105	=105	=105	=105
1G]	2G]	2g]	1d]	1g	2b]
.	2A	4f	.	.	2cc
.	.	4e	.	.	.
1G	1B	2d	2G	1g	1dd
.	.	2G	[2g	.	.
=106	=106	=106	=106	=106	=106
0C	0c	0g	4g]	2.e	0ee
.	.	.	4f	.	.
.	.	.	4e	.	.
.	.	.	4d	4f	.
.	.	.	2e	2g	.
.	.	.	2c	2a	.
=107	=107	=107	=107	=107	=107
0G	1B	1g	0d	1b	1dd
.	2r	2r	.	1r	2r
.	2G	2g	.	.	2dd
=108	=108	=108	=108	=108	=108
0r	2G	2g	0r	0r	2dd
.	2G	2g	.	.	2b
.	2A	2f	.	.	2cc
.	2B	2f	.	.	2dd
=109	=109	=109	=109	=109	=109
2r	1c	2e	2r	2r	1ee
2c	.	2c	2e	2g	.
2c	1r	2e	2c	2g	1r
2B	.	2d	2d	2g	.
=110	=110	=110	=110	=110	=110
2A	1r	2c	2e	2cc	1r
2A	.	2c	2f#	2cc	.
1G	2r	1d	2g	1b	2r
.	2G	.	2g	.	2b
=111	=111	=111	=111	=111	=111
0r	2A	0r	2f	1r	2cc
.	2B	.	2d	.	2dd
.	2c	.	2e	2r	1g
.	[2c	.	[2e	[2g	.
=112	=112	=112	=112	=112	=112
0r	2c]	0r	2e]	2g]	0r
.	2B	.	2d	2g	.
.	1A	.	1c	1f	.
=113	=113	=113	=113	=113	=113
0r	2G	0r	2B	2e	0r
.	2.A	.	2.c	2.f	.
.	4G	.	4B	4e	.
.	2E	.	2G	[2e	.
=114	=114	=114	=114	=114	=114
1r	1F	1r	1A	2e]	1r
.	.	.	.	2d	.
2r	2E	2r	1B	1e	2r
2G	2E	2g	.	.	2ee
=115	=115	=115	=115	=115	=115
2A	2F	2f	0r	1r	2cc
2B	2D	2f	.	.	2dd
2c	1C	1e	.	2r	2ee
[2c	.	.	.	[2g	[2ee
=116	=116	=116	=116	=116	=116
2c]	0r	2c	0r	2g]	2ee]
2B	.	2d	.	2g	2dd
1A	.	2e	.	1c	1cc
.	.	2f#	.	.	.
=117	=117	=117	=117	=117	=117
2G	0r	4g	0r	2d	2b
.	.	4f	.	.	.
2.A	.	4e	.	4c	2.cc
.	.	4d	.	4B	.
.	.	2c	.	4c	.
4G	.	.	.	4d	4b
2E	.	2B	.	[2e	2g
=118	=118	=118	=118	=118	=118
1F	1r	1A	1r	2e]	1a
.	.	.	.	2d	.
1E	2r	1B	2r	1e	2g
.	2G	.	2g	.	2b
=119	=119	=119	=119	=119	=119
1r	2A	1r	2f	1r	2cc
.	2B	.	2f	.	2dd
2r	1c	2r	1e	2r	2ee
2c	.	2e	.	2cc	2ee
=120	=120	=120	=120	=120	=120
2d	1r	2f	1r	2a	2dd
2c	.	2g	.	2cc	2ee
1F	2r	2a	2r	2cc	2ff
.	[2F	[2a	[2c	[2cc	[2ff
=121	=121	=121	=121	=121	=121
0r	2F]	2a]	4c]	2cc]	2ff]
.	.	.	4d	.	.
.	2C	2g	2e	2cc	2ee
.	1D	1f	2f	1a	1dd
.	.	.	2d	.	.
=122	=122	=122	=122	=122	=122
0r	2A	2e	2e	2a	2cc
.	4D	2.f	2d	1a	2.dd
.	4E	.	.	.	.
.	4F	.	1a	.	.
.	4G	4e	.	.	4cc
.	2A	2c	.	2f	[2cc
=123	=123	=123	=123	=123	=123
1r	0G	0d	2r	1g	2cc]
.	.	.	1d	.	4b
.	.	.	.	.	4a
1G	.	.	.	1d	1b
.	.	.	[2g	.	.
=124	=124	=124	=124	=124	=124
1.c	1r	[0c	2g]	2e	[0cc
.	.	.	2f	2f	.
.	1C	.	2.e	1g	.
2B	.	.	.	.	.
.	.	.	4d	.	.
=125	=125	=125	=125	=125	=125
2.A	1.F	1c_	4c	1a	0cc]
.	.	.	4A	.	.
.	.	.	1a	.	.
4G	.	.	.	.	.
2F	.	1c_	.	2.cc	.
2E	2G	.	2g	.	.
.	.	.	.	4b	.
=126	=126	=126	=126	=126	=126
0F	2A	0c]	0f	0a	[0cc
.	2F	.	.	.	.
.	2.A	.	.	.	.
.	4B	.	.	.	.
=127	=127	=127	=127	=127	=127
[0C	1.c	[0c	[0e	[0g	1cc_
.	.	.	.	.	1cc_
.	4B	.	.	.	.
.	4A	.	.	.	.
=128	=128	=128	=128	=128	=128
0C]	0G	0c]	0e]	0g]	0cc]
==	==	==	==	==	==
*-	*-	*-	*-	*-	*-
!!!CDT: 1525/^1526/-1594/2/2
!!!OCY: Italia
!!!AGN: Mass (Free)
!!!AST: renaissance, vocal
!!!ASW: Chanson 1533 (Lupi or Cadéac)
!!!PWK: Masses, Book 2
!!!RNB: Cadence finals: G
!!!YOR: Le Opere Complete, v. 4, p. 167
!!!YOO: Rome, Italy: Fratelli Scalera
!!!END: 1992//
!!!EED: John Miller
!!!YEC: Copyright 2000, John Miller
!!!YEN: United States of America
!!!YEM: Rights to all derivative electronic formats reserved.
!!!YEM: Refer to licensing agreement for further details.
!!!YEM: This file must be accompanied by the licensing agreement.
!!!YEM: A copy of the licensing agreement may be found at http://www.music-cog.ohio-state.edu/HumdrumDatabases/Palestrina/license.txt
!!!EMD: converted to Humdrum by Bret Aarden
